src/images/default-book-cover.svg

<?xml version="1.0" encoding="UTF-8" standalone="no"?>
<svg
   xmlns:dc="http://purl.org/dc/elements/1.1/"
   xmlns:cc="http://creativecommons.org/ns#"
   xmlns:rdf="http://www.w3.org/1999/02/22-rdf-syntax-ns#"
   xmlns:svg="http://www.w3.org/2000/svg"
   xmlns="http://www.w3.org/2000/svg"
   xmlns:sodipodi="http://sodipodi.sourceforge.net/DTD/sodipodi-0.dtd"
   xmlns:inkscape="http://www.inkscape.org/namespaces/inkscape"
   inkscape:version="1.0beta2 (2b71d25, 2019-12-03)"
   height="500"
   width="375"
   sodipodi:docname="default-book-cover.svg"
   xml:space="preserve"
   viewBox="0 0 375 500"
   y="0px"
   x="0px"
   id="Layer_1"
   version="1.1"><metadata
   id="metadata882"><rdf:RDF><cc:Work
       rdf:about=""><dc:format>image/svg+xml</dc:format><dc:type
         rdf:resource="http://purl.org/dc/dcmitype/StillImage" /><dc:title></dc:title></cc:Work></rdf:RDF></metadata><defs
   id="defs880">
	

		
	
			
			
			
			
		</defs><sodipodi:namedview
   inkscape:current-layer="Layer_1"
   inkscape:window-maximized="1"
   inkscape:window-y="23"
   inkscape:window-x="0"
   inkscape:cy="231.62493"
   inkscape:cx="451.89801"
   inkscape:zoom="0.6106852"
   showguides="false"
   showgrid="false"
   id="namedview878"
   inkscape:window-height="682"
   inkscape:window-width="1280"
   inkscape:pageshadow="2"
   inkscape:pageopacity="0"
   guidetolerance="10"
   gridtolerance="10"
   objecttolerance="10"
   borderopacity="1"
   inkscape:document-rotation="0"
   bordercolor="#666666"
   pagecolor="#ffffff" />
<path
   d="M 0 0 L 0 500 L 375 500 L 375 0 L 0 0 z M 282.93359 144.95117 L 282.95898 144.95117 C 285.55714 144.95117 288.00433 145.96599 289.85156 147.80859 C 291.71916 149.67156 292.74805 152.15222 292.74805 154.79297 L 292.74805 302.35352 C 292.74805 307.76373 288.32891 312.17751 282.89648 312.19141 C 259.99085 312.24604 221.61481 317.01989 195.14062 344.72461 L 195.14062 190.29883 C 195.14063 188.46457 195.60793 186.74235 196.49219 185.31641 C 218.22189 150.3237 259.97703 145.00577 282.93359 144.95117 z M 92.042969 144.95312 L 92.066406 144.95312 C 115.02389 145.00682 156.77903 150.3237 178.50781 185.31641 C 179.39207 186.74235 179.86133 188.46457 179.86133 190.29883 L 179.86133 344.72461 C 153.38716 317.01988 115.0111 312.24601 92.105469 312.19141 C 86.672118 312.17752 82.251953 307.76465 82.251953 302.35352 L 82.251953 154.79297 C 82.251953 152.15222 83.280838 149.67156 85.148438 147.80859 C 86.995666 145.96599 89.442034 144.95313 92.042969 144.95312 z M 59.839844 178.98242 L 66.974609 178.98242 L 66.974609 302.35352 C 66.974609 316.16931 78.232201 327.43541 92.068359 327.46875 C 111.49713 327.51504 143.53164 331.31286 166.21875 352.78516 C 126.98158 343.17772 85.61517 349.42176 62.041016 354.79492 C 59.092858 355.46715 56.053755 354.77324 53.697266 352.89453 C 51.347258 351.01952 50 348.2163 50 345.20703 L 50 188.82031 C 50 183.39529 54.415752 178.98242 59.839844 178.98242 z M 308.02539 178.98242 L 315.16016 178.98242 C 320.58518 178.98242 325.00092 183.39529 325 188.82031 L 325 345.21094 C 325 348.21928 323.65274 351.02148 321.30273 352.89648 C 318.94439 354.77614 315.90251 355.4692 312.95898 354.79883 C 289.38483 349.42659 248.01832 343.18162 208.7793 352.78906 C 231.46734 331.31584 263.50288 327.517 282.93164 327.4707 C 296.76873 327.43644 308.02539 316.16931 308.02539 302.35352 L 308.02539 178.98242 z "
   style="fill:#dee2e6;stroke-width:3.80906"
   id="rect884" />
<g
   id="g847">
</g>
<g
   id="g849">
</g>
<g
   id="g851">
</g>
<g
   id="g853">
</g>
<g
   id="g855">
</g>
<g
   id="g857">
</g>
<g
   id="g859">
</g>
<g
   id="g861">
</g>
<g
   id="g863">
</g>
<g
   id="g865">
</g>
<g
   id="g867">
</g>
<g
   id="g869">
</g>
<g
   id="g871">
</g>
<g
   id="g873">
</g>
<g
   id="g875">
</g>
</svg>

<svg viewBox="0 0 375 500" xmlns="http://www.w3.org/2000/svg"><path d="M0 0v500h375V0H0zm282.93 144.95h.025a9.7 9.7 0 016.893 2.857 9.8 9.8 0 012.896 6.985v147.56c0 5.41-4.419 9.824-9.851 9.838-22.906.054-61.282 4.828-87.756 32.533v-154.43c0-1.835.467-3.557 1.351-4.983 21.73-34.993 63.485-40.31 86.441-40.365zm-190.89.002h.023c22.957.054 64.713 5.37 86.441 40.363.885 1.426 1.354 3.148 1.354 4.982v154.43c-26.474-27.705-64.85-32.479-87.756-32.533-5.433-.014-9.854-4.426-9.854-9.838v-147.56a9.8 9.8 0 012.897-6.984 9.698 9.698 0 016.894-2.855zM59.837 178.98h7.135v123.37c0 13.816 11.258 25.082 25.094 25.115 19.429.046 51.463 3.844 74.15 25.316-39.237-9.607-80.604-3.363-104.18 2.01a9.813 9.813 0 01-8.344-1.9 9.785 9.785 0 01-3.697-7.688v-156.39c0-5.425 4.416-9.838 9.84-9.838zm248.19 0h7.135c5.425 0 9.84 4.413 9.84 9.838v156.39a9.782 9.782 0 01-3.698 7.685 9.822 9.822 0 01-8.343 1.903c-23.574-5.372-64.941-11.617-104.18-2.01 22.688-21.473 54.724-25.272 74.152-25.318 13.837-.034 25.094-11.301 25.094-25.117v-123.37z" fill="#dee2e6"/></svg>
